X:2
T: Horsburgh Castle
C: Ian Hardie
R: march, air
Z: 2014 John Chambers <jc:trillian.mit.edu>
F: http://ramshaw.info/tunes/2014-08/Horsburgh_Castle.pdf
N: Taught by Ronan Martin at Boston Harbor 2014
M: C
L: 1/8
K: Hp
{ag}ag |\
{g}f2 {gf}ga {f}g>e {gcd}ce | {gde}d>c {g}de {gfg}f2 {AGA}A2 |\
{gBd}B2 {a}g>f {g}ed {g}cd | {gfg}f4 {gf}e2 ||
{g}dc |\
{gBd}B2 {g}dg {AGAG}A2 {g}df | {gGd}G2 {Gdc}d>e {gdf}dc {gBd}B{Gd}A |\
{g}f>g {ag}af {gf}ge {gcd}ce | {Gdc}d4 {gdG}d2 :|
|: {g}Ad |\
{gfg}f2 {g}Ad {gf}g2 {a}fg | {ag}a>g {a}fa {Gdc}d2 {g}ef |\
{gf}g2 {ag}a>g {a}fa {f}gf | {gfg}f4 {gf}e2 |
[1 {g}Ad |\
{gf}f2 {g}Ad {gf}g2 {a}fg | {ag}a>g {a}fa {Gdc}d2 {g}dc |\
{gBd}B2 {gf}g>e {g}fa ce | {Gdc}d4 {gdG}d2 :|
[2 {g}dc |\
{gBd}B2 {g}dg {AGAG}A2 {g}df | {gGd}G2 {Gdc}d>e {gdf}dc {gBd}B{Gd}A |\
{g}f>g {ag}af {gf}ge {gcd}ce | {Gdc}d4 {gdG}d2|]
%%sep 1 1 500

